X: 0
T: Stille Nacht
Z: Franz Gruber
Z: Public Domain
L: 1/4
M: 6/8
V: P1 name="Staff"
%%MIDI program 1 4
V: P2 name="Staff-2"
%%MIDI program 2 4
V: P3 name="Staff-3"
%%MIDI program 3 4
V: P4 name="Staff-4"
%%MIDI program 4 4
K: Bb
[V: P1]  F3/4G/4F/ D3/ | F3/4G/4F/ D3/ [K: Bb]  | c c/ A3/ [K: Bb]  | B B/ F3/ [K: Bb]  | G G/ B3/4A/4G/ [K: Bb]  | F3/4G/4F/ D3/ [K: Bb]  | G G/ B3/4A/4G/ [K: Bb]  | F3/4G/4F/ D3/ [K: Bb]  | c c/ e3/4c/4A/ [K: Bb]  | B3/ d3/ [K: Bb]  | B3/4F/4D/ F3/4E/4C/ [K: Bb]  | B,3|]
[V: P2]  D3/4E/4D/ B,3/ | D3/4E/4D/ B,3/ [K: Bb]  | E E/ E3/ [K: Bb]  | D D/ D3/ [K: Bb]  | E E/ G3/4F/4E/ [K: Bb]  | D3/4E/4D/ B,3/ [K: Bb]  | E E/ G3/4F/4E/ [K: Bb]  | D3/4E/4D/ B,3/ [K: Bb]  | F F/ F3/4F/4F/ [K: Bb]  | F3 [K: Bb]  | B, B,/ A,3/4A,/4A,/ [K: Bb]  | B,3|]
[V: P3]  F, F,/ F,3/ | F, F,/ F,3/ [K: Bb]  | A, A,/ C3/ [K: Bb]  | B, B,/ B,3/ [K: Bb]  | B, B,/ B, B,/ [K: Bb]  | B,3/4B,/4B,/ B,3/ [K: Bb]  | B, B,/ B,3/4B,/4B,/ [K: Bb]  | B,3/4B,/4B,/ B,3/ [K: Bb]  | A, A,/ A,3/4A,/4E/ [K: Bb]  | D3/ B,3/ [K: Bb]  | F, F,/ F,3/4F,/4F,/ [K: Bb]  | D,3|]
[V: P4]  B,, B,,/ B,,3/ | B,, B,,/ B,,3/ [K: Bb]  | F, F,/ F,3/ [K: Bb]  | B,, B,,/ B,,3/ [K: Bb]  | E, E,/ E, E,/ [K: Bb]  | B,,3/4B,,/4B,,/ B,,3/ [K: Bb]  | E, E,/ E,3/4E,/4E,/ [K: Bb]  | B,,3/4B,,/4B,,/ B,,3/ [K: Bb]  | F, F,/ F,3/4F,/4F,/ [K: Bb]  | B,3 [K: Bb]  | D, B,,/ F,,3/4F,,/4F,,/ [K: Bb]  | B,,3|]

